src/rounded/icons/fi-rr-browser.svg

<svg id="Layer_1" height="512" viewBox="0 0 24 24" width="512" xmlns="http://www.w3.org/2000/svg" data-name="Layer 1"><path d="m19 1h-14a5.006 5.006 0 0 0 -5 5v12a5.006 5.006 0 0 0 5 5h14a5.006 5.006 0 0 0 5-5v-12a5.006 5.006 0 0 0 -5-5zm-14 2h14a3 3 0 0 1 3 3v1h-20v-1a3 3 0 0 1 3-3zm14 18h-14a3 3 0 0 1 -3-3v-9h20v9a3 3 0 0 1 -3 3zm0-8a1 1 0 0 1 -1 1h-12a1 1 0 0 1 0-2h12a1 1 0 0 1 1 1zm-4 4a1 1 0 0 1 -1 1h-8a1 1 0 0 1 0-2h8a1 1 0 0 1 1 1zm-12-12a1 1 0 1 1 1 1 1 1 0 0 1 -1-1zm3 0a1 1 0 1 1 1 1 1 1 0 0 1 -1-1zm3 0a1 1 0 1 1 1 1 1 1 0 0 1 -1-1z"/></svg>

<svg id="Layer_1" data-name="Layer 1" xmlns="http://www.w3.org/2000/svg" viewBox="0 0 24 24"><path d="M19,1H5A5.006,5.006,0,0,0,0,6V18a5.006,5.006,0,0,0,5,5H19a5.006,5.006,0,0,0,5-5V6A5.006,5.006,0,0,0,19,1ZM5,3H19a3,3,0,0,1,3,3V7H2V6A3,3,0,0,1,5,3ZM19,21H5a3,3,0,0,1-3-3V9H22v9A3,3,0,0,1,19,21Zm0-8a1,1,0,0,1-1,1H6a1,1,0,0,1,0-2H18A1,1,0,0,1,19,13Zm-4,4a1,1,0,0,1-1,1H6a1,1,0,0,1,0-2h8A1,1,0,0,1,15,17ZM3,5A1,1,0,1,1,4,6,1,1,0,0,1,3,5ZM6,5A1,1,0,1,1,7,6,1,1,0,0,1,6,5ZM9,5a1,1,0,1,1,1,1A1,1,0,0,1,9,5Z"/></svg>
